public/stylesheets/font/svgs/brands/fulcrum.svg

<svg viewBox="0 0 269.66 512" xmlns="http://www.w3.org/2000/svg"><path d="m70.75 164.14-35.38 43.55-35.37-43.55 35.38-43.55zm48.48-164.14-20.54 198.18-50.97 57.82 50.98 57.82 20.53 198.18v-211.11l-41.08-44.89 41.08-44.89zm79.67 164.14 35.38 43.55 35.38-43.55-35.38-43.55zm-48.48 46.97 41.08 44.89-41.08 44.89v211.11l20.54-198.18 50.98-57.82-50.98-57.82-20.54-198.18z"/></svg>

<svg xmlns="http://www.w3.org/2000/svg" viewBox="0 0 269.66 512"><path d="M70.75 164.14l-35.38 43.55L0 164.14l35.38-43.55 35.37 43.55zM119.23 0L98.69 198.18 47.72 256l50.98 57.82L119.23 512V300.89L78.15 256l41.08-44.89V0zm79.67 164.14l35.38 43.55 35.38-43.55-35.38-43.55-35.38 43.55zm-48.48 46.97L191.5 256l-41.08 44.89V512l20.54-198.18L221.94 256l-50.98-57.82L150.42 0v211.11z"/></svg>
